X: 92
T:Foxhunter's Jig
R:Slip Jig
S:The Black Book
M:9/8
L:1/8
K:D
|:"D"FGF F2D "G"G2E|"D"FDF F2D "A7"E2D|"D"FGF F2D "G"G2B|"D"AFD DEF "A7"E2D:|!
|:"Bm"B3 BAG FGA|"Em"B2E E2F G2B|"D"ABc dcB "A7"ABc|"D"d2D D2F "A7"E2D:|!
|:"D"fgf f2d "G"g2e|"D"fgf f2d "A"e2d|"D"fgf f2d "G"g2b|"D"afd def "A7"e2d:|!
|:"Em"gfe dcB "D"AGA|"Em"B2E E2F G2B|"D"ABc dcB "A7"ABc|"D"d2D DEF "A7"E2D:|!

